X: 1
T: Mrs Gordon's
M: 4/4
L: 1/8
R: reel
K: Dmaj
D2 Ad cdAd|cdef gecA|d2 Ad cdAd|BAGF EDCA,:|
dDFA fDFA|dDFA dcBA|eE^GB gEGB|eE^GB edce|
dDFA fDFA|dDFA dcBA|GABc defg|faBe dcBA||
